dist/images/services-icons/ambulance.svg

<svg width="48" height="48" viewBox="0 0 48 48" fill="none" xmlns="http://www.w3.org/2000/svg">
<circle cx="24" cy="24" r="23.5" fill="#FCFAF7" stroke="#BDA37E"/>
<path d="M20.2266 20.0781V18.0781H21.5599V20.0781H23.5599V21.4115H21.5599V23.4115H20.2266V21.4115H18.2266V20.0781H20.2266Z" fill="#BDA37E"/>
<path fill-rule="evenodd" clip-rule="evenodd" d="M11.5547 16.7441C11.5547 15.6395 12.4501 14.7441 13.5547 14.7441H28.2214C29.326 14.7441 30.2214 15.6395 30.2214 16.7441V20.7441H32.7C33.2028 20.7441 33.6872 20.9335 34.0566 21.2745L37.5779 24.525C37.9881 24.9036 38.2214 25.4364 38.2214 25.9946V31.4108H36.1374C35.8413 32.5609 34.7972 33.4108 33.5547 33.4108C32.3122 33.4108 31.2681 32.5609 30.972 31.4108H24.804C24.508 32.5609 23.4639 33.4108 22.2214 33.4108C20.9788 33.4108 19.9348 32.5609 19.6387 31.4108H18.804C18.508 32.5609 17.4639 33.4108 16.2214 33.4108C14.9788 33.4108 13.9347 32.5609 13.6387 31.4108H11.5547V16.7441ZM33.5547 28.0775C32.3122 28.0775 31.2681 28.9273 30.972 30.0775H30.2214V26.7441H36.888V30.0775H36.1374C35.8413 28.9273 34.7972 28.0775 33.5547 28.0775ZM33.1522 22.2543L36.5718 25.4108H30.2214V22.0775H32.7C32.8676 22.0775 33.0291 22.1406 33.1522 22.2543ZM13.5547 16.0775C13.1865 16.0775 12.888 16.3759 12.888 16.7441V25.4108H28.888V16.7441C28.888 16.3759 28.5896 16.0775 28.2214 16.0775H13.5547ZM22.2214 28.0775C23.4639 28.0775 24.508 28.9273 24.804 30.0775H28.888V26.7441H12.888V30.0775H13.6387C13.9347 28.9273 14.9788 28.0775 16.2214 28.0775C17.4639 28.0775 18.508 28.9273 18.804 30.0775H19.6387C19.9348 28.9273 20.9788 28.0775 22.2214 28.0775ZM16.2214 32.0775C15.485 32.0775 14.888 31.4805 14.888 30.7441C14.888 30.0077 15.485 29.4108 16.2214 29.4108C16.9578 29.4108 17.5547 30.0077 17.5547 30.7441C17.5547 31.4805 16.9578 32.0775 16.2214 32.0775ZM23.5547 30.7441C23.5547 31.4805 22.9578 32.0775 22.2214 32.0775C21.485 32.0775 20.888 31.4805 20.888 30.7441C20.888 30.0077 21.485 29.4108 22.2214 29.4108C22.9578 29.4108 23.5547 30.0077 23.5547 30.7441ZM33.5547 32.0775C34.2911 32.0775 34.888 31.4805 34.888 30.7441C34.888 30.0077 34.2911 29.4108 33.5547 29.4108C32.8183 29.4108 32.2214 30.0077 32.2214 30.7441C32.2214 31.4805 32.8183 32.0775 33.5547 32.0775Z" fill="#BDA37E"/>
</svg>

<svg width="48" height="48" fill="none" xmlns="http://www.w3.org/2000/svg"><circle cx="24" cy="24" r="23.5" fill="#FCFAF7" stroke="#BDA37E"/><path d="M20.227 20.078v-2h1.333v2h2v1.334h-2v2h-1.333v-2h-2v-1.334h2z" fill="#BDA37E"/><path fill-rule="evenodd" clip-rule="evenodd" d="M11.555 16.744a2 2 0 012-2H28.22a2 2 0 012 2v4h2.48a2 2 0 011.357.53l3.52 3.251a2 2 0 01.644 1.47v5.416h-2.084a2.668 2.668 0 01-5.165 0h-6.168a2.668 2.668 0 01-5.165 0h-.835a2.668 2.668 0 01-5.165 0h-2.084V16.744zm22 11.334c-1.243 0-2.287.85-2.583 2h-.75v-3.334h6.666v3.334h-.75c-.297-1.15-1.34-2-2.583-2zm-.403-5.824l3.42 3.157h-6.35v-3.334H32.7c.168 0 .33.064.452.177zm-19.597-6.177a.667.667 0 00-.667.667v8.667h16v-8.667a.667.667 0 00-.667-.666H13.555zm8.666 12c1.243 0 2.287.85 2.583 2h4.084v-3.333h-16v3.334h.75a2.668 2.668 0 015.166 0h.835c.296-1.15 1.34-2 2.582-2zm-6 4a1.333 1.333 0 110-2.666 1.333 1.333 0 010 2.666zm7.334-1.333a1.333 1.333 0 11-2.667 0 1.333 1.333 0 012.667 0zm10 1.334a1.333 1.333 0 100-2.667 1.333 1.333 0 000 2.666z" fill="#BDA37E"/></svg>
